X: 021395
T: Banks of the Shannon
S: B.Breathnach:"Ceol Rince na hEireann" II/5 (gan ainm)
Z: B.Black
L: 1/8
M: 6/8
R: jig
K: D
c|AGA g2g|aba efg|fff ded|cAG EFG|
A2A ggg|aaa efg|efd cAG|AGA d2 :|
e|f2d e2d|ded cAG|AGA EFG|f2d ecA|
f2d e2d|d/e/fd B/c/de|fed cA^G|A^GA d2 :|
